icon-themes/breeze_svg/cmd/lc_connectorarrowstart.svg

<svg viewBox="0 0 24 24" xmlns="http://www.w3.org/2000/svg"><path d="m7 4-3 3 3 3v-2h4v8 2h3 3v-2h-2-2v-8-2h-6z" fill="#4d4d4d"/></svg>

<svg xmlns="http://www.w3.org/2000/svg" viewBox="0 0 24 24">
 <path 
     style="fill:#4d4d4d" 
     d="M 7 4 L 4 7 L 7 10 L 7 8 L 11 8 L 11 16 L 11 18 L 14 18 L 17 18 L 17 16 L 15 16 L 13 16 L 13 8 L 13 6 L 7 6 L 7 4 z "
     />
 </svg>
